backend/src/main/resources/years/2026/maps/second-floor.svg

<svg xmlns="http://www.w3.org/2000/svg" width="1200" height="1200" fill="none" viewBox="0 0 1200 1200"><path fill="#fff" d="M0 0h1200v1200H0z"/><path stroke="#e8e8e8" d="M648 137v396m407-396v396m93.72 0H314.222m5.136-342.5h20.5M1149 137H319.358m249.83 53.5h-17.835a2 2 0 0 1-1.93-1.477L535.323 137m-38.101 299.236L503.857 461l19.1 70.522a2 2 0 0 0 1.931 1.478h42.809a2 2 0 0 0 2-2l.006-76.501M569.323 137v266.5M776.222 740v78.999m150.5-78.499v31.998"/><path stroke="#e8e8e8" d="M315.722 532.866h48.971a2 2 0 0 0 1.93-1.478l19.1-70.522 6.635-24.763M717.857 834l55.717-19.092a2 2 0 0 1 2.648 1.892V838a2 2 0 0 0 2 2h146.635a2 2 0 0 0 2-2v-73.06a2 2 0 0 1 1.366-1.897l125.767-42.086a2 2 0 0 0 1.37-1.897V599c0-1.105.88-2 1.99-2h89.54c1.1 0 1.97-.895 1.97-2V53c0-1.105-.9-2-2-2H321.857a2 2 0 0 0-2 2v477.999a2 2 0 0 1-2 2l-115.941-.04c-1.545-.001-2.507 1.675-1.728 3.009l118.289 202.524a2 2 0 0 1-.718 2.736L45.727 900.114a2 2 0 0 0-.718 2.736l116.895 200.14a2.01 2.01 0 0 0 2.736.72l334.054-195.115q.164-.095.342-.158L579.357 880zM478.222 647l-162 95"/><path stroke="#e8e8e8" d="M444.501 333.499c34.652 0 87.077-7.951 95.756-9.305.773-.121 1.371-.678 1.58-1.432l13.517-48.733c.096-.347.099-.705.005-1.052C540.904 219.844 518.5 137 518.5 137"/><path stroke="#e8e8e8" d="M445 333.5c-34.652 0-87.077-7.951-95.756-9.305-.773-.121-1.371-.678-1.58-1.432l-13.517-48.733a2 2 0 0 1-.005-1.052C348.603 219.845 372 137.001 372 137.001M926.722 765.5v-75h-150.5v134m-176 23.5-102 61m101.607-60.842s-10.24-24.462-47.423-95.97C511.652 687.733 478.222 646.5 478.222 646.5"/><path fill="#19191c" d="M338.862 411.064h2.12L343.95 416h-2.224zm-3.56-6.264h4.736q1.152 0 2.024.424a3.13 3.13 0 0 1 1.344 1.2q.48.768.48 1.784 0 1.024-.488 1.808a3.2 3.2 0 0 1-1.368 1.216q-.88.424-2.056.424h-2.712V416h-1.96zm4.632 5.184q.576 0 1.008-.216t.664-.608q.24-.4.24-.936 0-.528-.24-.92a1.5 1.5 0 0 0-.664-.608 2.2 2.2 0 0 0-1.008-.216h-2.672v3.504zm9.02 6.208q-1.224 0-2.216-.552a4 4 0 0 1-1.544-1.528q-.56-.984-.56-2.208t.56-2.2a4 4 0 0 1 1.552-1.536q.992-.552 2.216-.552t2.208.552a4 4 0 0 1 1.544 1.528q.56.976.56 2.208t-.56 2.208a4 4 0 0 1-1.544 1.528q-.984.552-2.216.552m.016-1.712q.664 0 1.192-.32.528-.329.832-.912.304-.584.304-1.344t-.304-1.344a2.2 2.2 0 0 0-.84-.912 2.2 2.2 0 0 0-1.192-.328q-.664 0-1.208.328a2.2 2.2 0 0 0-.84.912q-.304.584-.304 1.344t.304 1.344q.305.584.84.912.544.32 1.216.32m9.515 1.712q-1.223 0-2.216-.552a4 4 0 0 1-1.544-1.528q-.56-.984-.56-2.208t.56-2.2a4 4 0 0 1 1.552-1.536q.993-.552 2.216-.552t2.208.552a4 4 0 0 1 1.544 1.528q.56.976.56 2.208t-.56 2.208a4 4 0 0 1-1.544 1.528q-.984.552-2.216.552m.016-1.712q.664 0 1.192-.32.529-.329.832-.912.304-.584.304-1.344t-.304-1.344a2.2 2.2 0 0 0-.84-.912 2.2 2.2 0 0 0-1.192-.328q-.663 0-1.208.328a2.2 2.2 0 0 0-.84.912q-.303.584-.304 1.344 0 .76.304 1.344.305.584.84.912.544.32 1.216.32m5.787-6.672h1.848v3.408h-.48q.009-1.104.352-1.912.352-.816 1-1.248.656-.44 1.544-.44.873 0 1.504.4.632.392.968 1.12.345.728.344 1.696V416h-1.856v-4.944q0-.544-.184-.944a1.36 1.36 0 0 0-.544-.616 1.57 1.57 0 0 0-.84-.216q-.528 0-.928.24t-.616.688q-.207.44-.208 1.04V416h-1.904zm10.408 3.248a2.16 2.16 0 0 0-.192-.944 1.37 1.37 0 0 0-.536-.616q-.344-.216-.84-.216-.528 0-.928.248-.391.24-.616.68-.216.44-.216 1.04l-.784-.032q0-1.072.384-1.888a2.95 2.95 0 0 1 1.088-1.264q.704-.448 1.64-.448.873 0 1.528.4.665.392 1.016 1.12.36.728.36 1.696V416h-1.904zm-26.149 19.4 4.544-4.08q.593-.544.872-1.064.28-.52.28-1.096 0-.552-.248-.968a1.63 1.63 0 0 0-.688-.656 2.1 2.1 0 0 0-1.008-.232q-.615 0-1.096.264-.48.264-.744.736a2.2 2.2 0 0 0-.264 1.08h-1.976q0-1.096.528-1.968a3.6 3.6 0 0 1 1.464-1.368q.936-.496 2.112-.496 1.12 0 2.016.448a3.4 3.4 0 0 1 1.4 1.232 3.16 3.16 0 0 1 .496 1.776q0 .944-.488 1.792t-1.512 1.744l-2.92 2.648h5.224V432h-7.984zm11.569-6.328h-2.632v-1.632h1.48q.495 0 .864-.208.375-.208.568-.592.2-.384.2-.896h1.48V432h-1.96zm156.746-13.064h2.12L521.95 416h-2.224zm-3.56-6.264h4.736q1.152 0 2.024.424a3.13 3.13 0 0 1 1.344 1.2q.48.768.48 1.784 0 1.024-.488 1.808a3.2 3.2 0 0 1-1.368 1.216q-.88.424-2.056.424h-2.712V416h-1.96zm4.632 5.184q.576 0 1.008-.216t.664-.608q.24-.4.24-.936 0-.528-.24-.92a1.5 1.5 0 0 0-.664-.608 2.2 2.2 0 0 0-1.008-.216h-2.672v3.504zm9.02 6.208q-1.224 0-2.216-.552a4 4 0 0 1-1.544-1.528q-.56-.984-.56-2.208t.56-2.2a4 4 0 0 1 1.552-1.536q.992-.552 2.216-.552t2.208.552a4 4 0 0 1 1.544 1.528q.56.976.56 2.208t-.56 2.208a4 4 0 0 1-1.544 1.528q-.984.552-2.216.552m.016-1.712q.664 0 1.192-.32.528-.329.832-.912.304-.584.304-1.344t-.304-1.344a2.2 2.2 0 0 0-.84-.912 2.2 2.2 0 0 0-1.192-.328q-.664 0-1.208.328a2.2 2.2 0 0 0-.84.912q-.304.584-.304 1.344t.304 1.344.84.912q.544.32 1.216.32m9.515 1.712q-1.223 0-2.216-.552a4 4 0 0 1-1.544-1.528q-.56-.984-.56-2.208t.56-2.2a4 4 0 0 1 1.552-1.536q.993-.552 2.216-.552t2.208.552a4 4 0 0 1 1.544 1.528q.56.976.56 2.208t-.56 2.208a4 4 0 0 1-1.544 1.528q-.983.552-2.216.552m.016-1.712q.664 0 1.192-.32.528-.329.832-.912.304-.584.304-1.344t-.304-1.344a2.2 2.2 0 0 0-.84-.912 2.2 2.2 0 0 0-1.192-.328q-.663 0-1.208.328a2.2 2.2 0 0 0-.84.912q-.303.584-.304 1.344 0 .76.304 1.344t.84.912q.544.32 1.216.32m5.787-6.672h1.848v3.408h-.48q.009-1.104.352-1.912.352-.816 1-1.248.657-.44 1.544-.44.873 0 1.504.4.633.392.968 1.12.345.728.344 1.696V416h-1.856v-4.944q0-.544-.184-.944a1.36 1.36 0 0 0-.544-.616 1.57 1.57 0 0 0-.84-.216q-.528 0-.928.24t-.616.688q-.207.44-.208 1.04V416h-1.904zm10.408 3.248a2.16 2.16 0 0 0-.192-.944 1.37 1.37 0 0 0-.536-.616q-.344-.216-.84-.216-.528 0-.928.248-.391.24-.616.68-.216.44-.216 1.04l-.784-.032q0-1.072.384-1.888a2.95 2.95 0 0 1 1.088-1.264q.705-.448 1.64-.448.873 0 1.528.4.665.392 1.016 1.12.36.728.36 1.696V416h-1.904zm-27.547 19.4 4.544-4.08q.592-.544.872-1.064t.28-1.096q0-.552-.248-.968a1.63 1.63 0 0 0-.688-.656 2.1 2.1 0 0 0-1.008-.232q-.616 0-1.096.264t-.744.736a2.2 2.2 0 0 0-.264 1.08h-1.976q0-1.096.528-1.968a3.6 3.6 0 0 1 1.464-1.368q.936-.496 2.112-.496 1.12 0 2.016.448a3.4 3.4 0 0 1 1.4 1.232q.504.784.496 1.776 0 .944-.488 1.792-.487.848-1.512 1.744l-2.92 2.648h5.224V432h-7.984zm9.328 0 4.544-4.08q.593-.544.872-1.064.28-.52.28-1.096 0-.552-.248-.968a1.63 1.63 0 0 0-.688-.656 2.1 2.1 0 0 0-1.008-.232q-.615 0-1.096.264-.48.264-.744.736a2.2 2.2 0 0 0-.264 1.08h-1.976q0-1.096.528-1.968a3.6 3.6 0 0 1 1.464-1.368q.936-.496 2.112-.496 1.12 0 2.016.448a3.4 3.4 0 0 1 1.4 1.232 3.16 3.16 0 0 1 .496 1.776q0 .944-.488 1.792-.487.848-1.512 1.744l-2.92 2.648h5.224V432h-7.984zm-100.678-39.11h-1.577v-4.939h5.635v-4.128h5.659v-4.151h5.658V374h6.447v1.577h-4.87v4.151h-5.635v4.128h-5.659v4.151h-5.658z"/><path stroke="#a0a0a0" stroke-linejoin="round" stroke-width="3" d="M386.5 457.5 365.062 532h157.5L503.5 461h66V191h-19L536 138.5h-17l36.5 134L542 324c-16.333 3.167-57.6 9.5-92 9.5s-82-6.333-101.5-9.5l-14-49.5 37.5-136h-18.5l-14 52H320V376"/><path stroke="url(#paint0_linear_9601_1364)" stroke-width="3" d="m396 418.067-12.596-41.514a2 2 0 0 0-1.914-1.42H322a2 2 0 0 0-2 2v54.046l.125 27.963a2.003 2.003 0 0 0 2.004 1.991h61.774c.909 0 1.711-.613 1.941-1.493l1.832-6.994 4.357-16.371"/><path stroke="url(#paint1_linear_9601_1364)" stroke-width="3" d="m493 418 12.703-41.584a2 2 0 0 1 1.913-1.416h60.019a2 2 0 0 1 2 2v54.133l-.126 28.01a2.003 2.003 0 0 1-2.004 1.991h-62.322a2.01 2.01 0 0 1-1.941-1.49l-1.849-7.011L497 436.237"/><defs><linearGradient id="paint0_linear_9601_1364" x1="409.749" x2="391.455" y1="522.537" y2="123.532" gradientUnits="userSpaceOnUse"><stop stop-color="#ff9419"/><stop offset=".743" stop-color="#ff021d"/><stop offset="1" stop-color="#e600ff"/></linearGradient><linearGradient id="paint1_linear_9601_1364" x1="168" x2="679.727" y1="1105.13" y2="1212.91" gradientUnits="userSpaceOnUse"><stop stop-color="#ff9419"/><stop offset=".201" stop-color="#ff021d"/><stop offset=".99" stop-color="#e600ff"/></linearGradient></defs></svg>

<svg width="1200" height="1200" viewBox="0 0 1200 1200" fill="none" xmlns="http://www.w3.org/2000/svg">
<rect width="1200" height="1200" fill="white"/>
<path d="M648 137L648 533M1055 137V533" stroke="#D1D1D2"/>
<path d="M1148.72 533L314.222 533" stroke="#D1D1D2"/>
<path d="M319.358 190.5L339.858 190.5M1149 137L336.858 137L319.358 137" stroke="#D1D1D2"/>
<path d="M569.188 190.5L551.353 190.5C550.45 190.5 549.659 189.894 549.423 189.023L535.323 137M497.222 436.236L503.857 461L522.957 531.522C523.193 532.394 523.984 533 524.888 533L567.697 533C568.802 533 569.697 532.104 569.697 531L569.703 454.499M569.323 137C569.323 182.886 569.323 403.5 569.323 403.5" stroke="#D1D1D2"/>
<path d="M776.222 740L776.222 818.999" stroke="#D1D1D2"/>
<path d="M926.722 740.5L926.722 772.498" stroke="#D1D1D2"/>
<path d="M315.722 532.866L364.693 532.866C365.596 532.866 366.387 532.26 366.623 531.388L385.723 460.866L392.358 436.103M717.857 834L773.574 814.908C774.872 814.463 776.222 815.427 776.222 816.8L776.222 838C776.222 839.105 777.117 840 778.222 840L924.857 840C925.962 840 926.857 839.105 926.857 838L926.857 764.94C926.857 764.08 927.407 763.316 928.223 763.043L1053.99 720.957C1054.81 720.684 1055.36 719.92 1055.36 719.06L1055.36 599C1055.36 597.895 1056.24 597 1057.35 597C1092.85 597 1137.11 597 1146.89 597C1147.99 597 1148.86 596.105 1148.86 595L1148.86 53C1148.86 51.8954 1147.96 51 1146.86 51L321.857 51C320.753 51 319.857 51.8954 319.857 53L319.857 530.999C319.857 532.104 318.962 533 317.857 532.999L201.916 532.959C200.371 532.958 199.409 534.634 200.188 535.968L318.477 738.492C319.034 739.446 318.712 740.671 317.759 741.228L45.7269 900.114C44.7731 900.671 44.4515 901.896 45.0086 902.85L161.904 1102.99C162.461 1103.94 163.686 1104.26 164.64 1103.71L498.694 908.595C498.803 908.532 498.917 908.479 499.036 908.437L579.357 880L717.857 834Z" stroke="#D1D1D2"/>
<path d="M478.222 647L316.222 742" stroke="#D1D1D2"/>
<path d="M444.501 333.499C479.153 333.499 531.578 325.548 540.257 324.194C541.03 324.073 541.628 323.516 541.837 322.762L555.354 274.029C555.45 273.682 555.453 273.324 555.359 272.977C540.904 219.844 518.5 137 518.5 137" stroke="#D1D1D2"/>
<path d="M445 333.5C410.348 333.5 357.923 325.549 349.244 324.195C348.471 324.074 347.873 323.517 347.664 322.763L334.147 274.03C334.051 273.683 334.048 273.325 334.142 272.978C348.603 219.845 372 137.001 372 137.001" stroke="#D1D1D2"/>
<path d="M926.722 765.5V690.5H776.222V740V824.5M600.222 848L498.222 909" stroke="#D1D1D2"/>
<path d="M599.829 848.158C599.829 848.158 589.589 823.696 552.406 752.188C511.652 687.733 478.222 646.5 478.222 646.5" stroke="#D1D1D2"/>
<path d="M338.862 411.064H340.982L343.95 416H341.726L338.862 411.064ZM335.302 404.8H340.038C340.806 404.8 341.481 404.941 342.062 405.224C342.644 405.507 343.092 405.907 343.406 406.424C343.726 406.936 343.886 407.531 343.886 408.208C343.886 408.891 343.724 409.493 343.398 410.016C343.078 410.539 342.622 410.944 342.03 411.232C341.444 411.515 340.758 411.656 339.974 411.656H337.262V416H335.302V404.8ZM339.934 409.984C340.318 409.984 340.654 409.912 340.942 409.768C341.23 409.624 341.452 409.421 341.606 409.16C341.766 408.893 341.846 408.581 341.846 408.224C341.846 407.872 341.766 407.565 341.606 407.304C341.452 407.037 341.23 406.835 340.942 406.696C340.654 406.552 340.318 406.48 339.934 406.48H337.262V409.984H339.934ZM348.954 416.192C348.138 416.192 347.399 416.008 346.738 415.64C346.082 415.272 345.567 414.763 345.194 414.112C344.821 413.456 344.634 412.72 344.634 411.904C344.634 411.088 344.821 410.355 345.194 409.704C345.567 409.048 346.085 408.536 346.746 408.168C347.407 407.8 348.146 407.616 348.962 407.616C349.778 407.616 350.514 407.8 351.17 408.168C351.826 408.536 352.341 409.045 352.714 409.696C353.087 410.347 353.274 411.083 353.274 411.904C353.274 412.725 353.087 413.461 352.714 414.112C352.341 414.763 351.826 415.272 351.17 415.64C350.514 416.008 349.775 416.192 348.954 416.192ZM348.97 414.48C349.413 414.48 349.81 414.373 350.162 414.16C350.514 413.941 350.791 413.637 350.994 413.248C351.197 412.859 351.298 412.411 351.298 411.904C351.298 411.397 351.197 410.949 350.994 410.56C350.791 410.165 350.511 409.861 350.154 409.648C349.802 409.429 349.405 409.32 348.962 409.32C348.519 409.32 348.117 409.429 347.754 409.648C347.397 409.861 347.117 410.165 346.914 410.56C346.711 410.949 346.61 411.397 346.61 411.904C346.61 412.411 346.711 412.859 346.914 413.248C347.117 413.637 347.397 413.941 347.754 414.16C348.117 414.373 348.522 414.48 348.97 414.48ZM358.485 416.192C357.669 416.192 356.931 416.008 356.269 415.64C355.613 415.272 355.099 414.763 354.725 414.112C354.352 413.456 354.165 412.72 354.165 411.904C354.165 411.088 354.352 410.355 354.725 409.704C355.099 409.048 355.616 408.536 356.277 408.168C356.939 407.8 357.677 407.616 358.493 407.616C359.309 407.616 360.045 407.8 360.701 408.168C361.357 408.536 361.872 409.045 362.245 409.696C362.619 410.347 362.805 411.083 362.805 411.904C362.805 412.725 362.619 413.461 362.245 414.112C361.872 414.763 361.357 415.272 360.701 415.64C360.045 416.008 359.307 416.192 358.485 416.192ZM358.501 414.48C358.944 414.48 359.341 414.373 359.693 414.16C360.045 413.941 360.323 413.637 360.525 413.248C360.728 412.859 360.829 412.411 360.829 411.904C360.829 411.397 360.728 410.949 360.525 410.56C360.323 410.165 360.043 409.861 359.685 409.648C359.333 409.429 358.936 409.32 358.493 409.32C358.051 409.32 357.648 409.429 357.285 409.648C356.928 409.861 356.648 410.165 356.445 410.56C356.243 410.949 356.141 411.397 356.141 411.904C356.141 412.411 356.243 412.859 356.445 413.248C356.648 413.637 356.928 413.941 357.285 414.16C357.648 414.373 358.053 414.48 358.501 414.48ZM364.288 407.808H366.136V411.216H365.656C365.662 410.48 365.779 409.843 366.008 409.304C366.243 408.76 366.576 408.344 367.008 408.056C367.446 407.763 367.96 407.616 368.552 407.616C369.134 407.616 369.635 407.749 370.056 408.016C370.478 408.277 370.8 408.651 371.024 409.136C371.254 409.621 371.368 410.187 371.368 410.832V416H369.512V411.056C369.512 410.693 369.451 410.379 369.328 410.112C369.206 409.845 369.024 409.64 368.784 409.496C368.55 409.352 368.27 409.28 367.944 409.28C367.592 409.28 367.283 409.36 367.016 409.52C366.75 409.68 366.544 409.909 366.4 410.208C366.262 410.501 366.192 410.848 366.192 411.248V416H364.288V407.808ZM374.696 411.056C374.696 410.693 374.632 410.379 374.504 410.112C374.382 409.845 374.203 409.64 373.968 409.496C373.739 409.352 373.459 409.28 373.128 409.28C372.776 409.28 372.467 409.363 372.2 409.528C371.939 409.688 371.734 409.915 371.584 410.208C371.44 410.501 371.368 410.848 371.368 411.248L370.584 411.216C370.584 410.501 370.712 409.872 370.968 409.328C371.224 408.784 371.587 408.363 372.056 408.064C372.526 407.765 373.072 407.616 373.696 407.616C374.278 407.616 374.787 407.749 375.224 408.016C375.667 408.277 376.006 408.651 376.24 409.136C376.48 409.621 376.6 410.187 376.6 410.832V416H374.696V411.056ZM348.547 430.456L353.091 426.376C353.486 426.013 353.777 425.659 353.963 425.312C354.15 424.965 354.243 424.6 354.243 424.216C354.243 423.848 354.161 423.525 353.995 423.248C353.835 422.965 353.606 422.747 353.307 422.592C353.014 422.437 352.678 422.36 352.299 422.36C351.889 422.36 351.523 422.448 351.203 422.624C350.883 422.8 350.635 423.045 350.459 423.36C350.283 423.675 350.195 424.035 350.195 424.44H348.219C348.219 423.709 348.395 423.053 348.747 422.472C349.099 421.885 349.587 421.429 350.211 421.104C350.835 420.773 351.539 420.608 352.323 420.608C353.07 420.608 353.742 420.757 354.339 421.056C354.937 421.349 355.403 421.76 355.739 422.288C356.075 422.811 356.241 423.403 356.235 424.064C356.235 424.693 356.073 425.291 355.747 425.856C355.422 426.421 354.918 427.003 354.235 427.6L351.315 430.248H356.539V432H348.555L348.547 430.456ZM360.116 424.128H357.484V422.496H358.964C359.294 422.496 359.582 422.427 359.828 422.288C360.078 422.149 360.268 421.952 360.396 421.696C360.529 421.44 360.596 421.141 360.596 420.8H360.604H362.076V432H360.116V424.128Z" fill="#19191C"/>
<path d="M516.862 411.064H518.982L521.95 416H519.726L516.862 411.064ZM513.302 404.8H518.038C518.806 404.8 519.481 404.941 520.062 405.224C520.644 405.507 521.092 405.907 521.406 406.424C521.726 406.936 521.886 407.531 521.886 408.208C521.886 408.891 521.724 409.493 521.398 410.016C521.078 410.539 520.622 410.944 520.03 411.232C519.444 411.515 518.758 411.656 517.974 411.656H515.262V416H513.302V404.8ZM517.934 409.984C518.318 409.984 518.654 409.912 518.942 409.768C519.23 409.624 519.452 409.421 519.606 409.16C519.766 408.893 519.846 408.581 519.846 408.224C519.846 407.872 519.766 407.565 519.606 407.304C519.452 407.037 519.23 406.835 518.942 406.696C518.654 406.552 518.318 406.48 517.934 406.48H515.262V409.984H517.934ZM526.954 416.192C526.138 416.192 525.399 416.008 524.738 415.64C524.082 415.272 523.567 414.763 523.194 414.112C522.821 413.456 522.634 412.72 522.634 411.904C522.634 411.088 522.821 410.355 523.194 409.704C523.567 409.048 524.085 408.536 524.746 408.168C525.407 407.8 526.146 407.616 526.962 407.616C527.778 407.616 528.514 407.8 529.17 408.168C529.826 408.536 530.341 409.045 530.714 409.696C531.087 410.347 531.274 411.083 531.274 411.904C531.274 412.725 531.087 413.461 530.714 414.112C530.341 414.763 529.826 415.272 529.17 415.64C528.514 416.008 527.775 416.192 526.954 416.192ZM526.97 414.48C527.413 414.48 527.81 414.373 528.162 414.16C528.514 413.941 528.791 413.637 528.994 413.248C529.197 412.859 529.298 412.411 529.298 411.904C529.298 411.397 529.197 410.949 528.994 410.56C528.791 410.165 528.511 409.861 528.154 409.648C527.802 409.429 527.405 409.32 526.962 409.32C526.519 409.32 526.117 409.429 525.754 409.648C525.397 409.861 525.117 410.165 524.914 410.56C524.711 410.949 524.61 411.397 524.61 411.904C524.61 412.411 524.711 412.859 524.914 413.248C525.117 413.637 525.397 413.941 525.754 414.16C526.117 414.373 526.522 414.48 526.97 414.48ZM536.485 416.192C535.669 416.192 534.931 416.008 534.269 415.64C533.613 415.272 533.099 414.763 532.725 414.112C532.352 413.456 532.165 412.72 532.165 411.904C532.165 411.088 532.352 410.355 532.725 409.704C533.099 409.048 533.616 408.536 534.277 408.168C534.939 407.8 535.677 407.616 536.493 407.616C537.309 407.616 538.045 407.8 538.701 408.168C539.357 408.536 539.872 409.045 540.245 409.696C540.619 410.347 540.805 411.083 540.805 411.904C540.805 412.725 540.619 413.461 540.245 414.112C539.872 414.763 539.357 415.272 538.701 415.64C538.045 416.008 537.307 416.192 536.485 416.192ZM536.501 414.48C536.944 414.48 537.341 414.373 537.693 414.16C538.045 413.941 538.323 413.637 538.525 413.248C538.728 412.859 538.829 412.411 538.829 411.904C538.829 411.397 538.728 410.949 538.525 410.56C538.323 410.165 538.043 409.861 537.685 409.648C537.333 409.429 536.936 409.32 536.493 409.32C536.051 409.32 535.648 409.429 535.285 409.648C534.928 409.861 534.648 410.165 534.445 410.56C534.243 410.949 534.141 411.397 534.141 411.904C534.141 412.411 534.243 412.859 534.445 413.248C534.648 413.637 534.928 413.941 535.285 414.16C535.648 414.373 536.053 414.48 536.501 414.48ZM542.288 407.808H544.136V411.216H543.656C543.662 410.48 543.779 409.843 544.008 409.304C544.243 408.76 544.576 408.344 545.008 408.056C545.446 407.763 545.96 407.616 546.552 407.616C547.134 407.616 547.635 407.749 548.056 408.016C548.478 408.277 548.8 408.651 549.024 409.136C549.254 409.621 549.368 410.187 549.368 410.832V416H547.512V411.056C547.512 410.693 547.451 410.379 547.328 410.112C547.206 409.845 547.024 409.64 546.784 409.496C546.55 409.352 546.27 409.28 545.944 409.28C545.592 409.28 545.283 409.36 545.016 409.52C544.75 409.68 544.544 409.909 544.4 410.208C544.262 410.501 544.192 410.848 544.192 411.248V416H542.288V407.808ZM552.696 411.056C552.696 410.693 552.632 410.379 552.504 410.112C552.382 409.845 552.203 409.64 551.968 409.496C551.739 409.352 551.459 409.28 551.128 409.28C550.776 409.28 550.467 409.363 550.2 409.528C549.939 409.688 549.734 409.915 549.584 410.208C549.44 410.501 549.368 410.848 549.368 411.248L548.584 411.216C548.584 410.501 548.712 409.872 548.968 409.328C549.224 408.784 549.587 408.363 550.056 408.064C550.526 407.765 551.072 407.616 551.696 407.616C552.278 407.616 552.787 407.749 553.224 408.016C553.667 408.277 554.006 408.651 554.24 409.136C554.48 409.621 554.6 410.187 554.6 410.832V416H552.696V411.056ZM525.149 430.456L529.693 426.376C530.088 426.013 530.378 425.659 530.565 425.312C530.752 424.965 530.845 424.6 530.845 424.216C530.845 423.848 530.762 423.525 530.597 423.248C530.437 422.965 530.208 422.747 529.909 422.592C529.616 422.437 529.28 422.36 528.901 422.36C528.49 422.36 528.125 422.448 527.805 422.624C527.485 422.8 527.237 423.045 527.061 423.36C526.885 423.675 526.797 424.035 526.797 424.44H524.821C524.821 423.709 524.997 423.053 525.349 422.472C525.701 421.885 526.189 421.429 526.813 421.104C527.437 420.773 528.141 420.608 528.925 420.608C529.672 420.608 530.344 420.757 530.941 421.056C531.538 421.349 532.005 421.76 532.341 422.288C532.677 422.811 532.842 423.403 532.837 424.064C532.837 424.693 532.674 425.291 532.349 425.856C532.024 426.421 531.52 427.003 530.837 427.6L527.917 430.248H533.141V432H525.157L525.149 430.456ZM534.477 430.456L539.021 426.376C539.416 426.013 539.707 425.659 539.893 425.312C540.08 424.965 540.173 424.6 540.173 424.216C540.173 423.848 540.091 423.525 539.925 423.248C539.765 422.965 539.536 422.747 539.237 422.592C538.944 422.437 538.608 422.36 538.229 422.36C537.819 422.36 537.453 422.448 537.133 422.624C536.813 422.8 536.565 423.045 536.389 423.36C536.213 423.675 536.125 424.035 536.125 424.44H534.149C534.149 423.709 534.325 423.053 534.677 422.472C535.029 421.885 535.517 421.429 536.141 421.104C536.765 420.773 537.469 420.608 538.253 420.608C539 420.608 539.672 420.757 540.269 421.056C540.867 421.349 541.333 421.76 541.669 422.288C542.005 422.811 542.171 423.403 542.165 424.064C542.165 424.693 542.003 425.291 541.677 425.856C541.352 426.421 540.848 427.003 540.165 427.6L537.245 430.248H542.469V432H534.485L534.477 430.456Z" fill="#19191C"/>
<path d="M433.799 391.346H432.222V386.407H437.857V382.279H443.516V378.128H449.174V374H455.621V375.577H450.751V379.728H445.116V383.856H439.457V388.007H433.799V391.346Z" fill="#19191C"/>
<path d="M386.5 457.5L365.062 532H522.562L503.5 461H569.5V191H550.5L536 138.5H519L555.5 272.5L542 324C525.667 327.167 484.4 333.5 450 333.5C415.6 333.5 368 327.167 348.5 324L334.5 274.5L372 138.5H353.5L339.5 190.5H320V376" stroke="#A3A3A4" stroke-width="3" stroke-linejoin="round"/>
<path d="M396 418.067L383.404 376.553C383.149 375.71 382.371 375.133 381.49 375.133L322 375.133C320.895 375.133 320 376.029 320 377.133L320 377.629L320 431.179L320.125 459.142C320.13 460.243 321.027 461.133 322.129 461.133C345.604 461.133 360.316 461.133 383.903 461.133C384.812 461.133 385.614 460.52 385.844 459.64L387.676 452.646L392.033 436.275" stroke="url(#paint0_linear_9601_1364)" stroke-width="3"/>
<path d="M493 418L505.703 376.416C505.96 375.575 506.736 375 507.616 375L567.635 375C568.74 375 569.635 375.895 569.635 377L569.635 377.5L569.635 431.133L569.509 459.143C569.504 460.244 568.607 461.134 567.505 461.134C543.819 461.134 528.981 461.134 505.183 461.134C504.275 461.134 503.474 460.522 503.242 459.644L501.393 452.633L497 436.237" stroke="url(#paint1_linear_9601_1364)" stroke-width="3"/>
<defs>
<linearGradient id="paint0_linear_9601_1364" x1="409.749" y1="522.537" x2="391.455" y2="123.532" gradientUnits="userSpaceOnUse">
<stop stop-color="#FF9419"/>
<stop offset="0.742911" stop-color="#FF021D"/>
<stop offset="1" stop-color="#E600FF"/>
</linearGradient>
<linearGradient id="paint1_linear_9601_1364" x1="168" y1="1105.13" x2="679.727" y2="1212.91" gradientUnits="userSpaceOnUse">
<stop stop-color="#FF9419"/>
<stop offset="0.200736" stop-color="#FF021D"/>
<stop offset="0.99" stop-color="#E600FF"/>
</linearGradient>
</defs>
</svg>
